X:1
T:Title
%%score { ( 1 4 5 ) | ( 2 3 ) }
L:1/8
M:2/4
K:Eb
V:1 treble nm="Grand Piano"
V:4 treble 
V:5 treble 
V:2 bass 
V:3 bass 
V:1
 z2 z[Q:1/4=66] [EB] | [Ec][EB] [DF]>[DG] | E3 G | [FG][Ec] [Ge]>[Fd] | [Ec]3 [FB] | cB F>[DA] | %6
 G3 B | e[Gd] [Gc].[Fc] | [B,DB]3 [B,EG] | [_DEB][CEA] [=DF][DA] | [EG]3 [Ec] | [EB][EG] z z/ F/ | %12
[M:3/8] E3 |] %13
V:2
 z2 z [E,G,] | [A,,A,][B,,G,] [B,,A,]>[B,,B,] | [E,G,]3 [E,B,E] | [D,=B,][C,C] [F,C]>[G,B,] | %4
 [C,C]3 [D,B,] | [E,A,E][E,G,E] [F,B,D]>[B,,B,] | [E,B,E]3 [E,A,D] | [E,G,E][E,B,] .[F,B,]>E | %8
 B,,3 E, | G,,A,, [B,,B,][B,,B,] | [E,B,]3 [A,,A,] | [B,,G,][B,,B,] .[B,,B,]>D |[M:3/8] [E,G,]3 |] %13
V:3
 x4 | x4 | x4 | x4 | x4 | x4 | x4 | z2 z [F,=A,] | x4 | x4 | x4 | z2 z B,, |[M:3/8] x3 |] %13
V:4
 x4 | x4 | x4 | x4 | x4 | x4 | x4 | x4 | x4 | x4 | x4 | z2 [DG]2 |[M:3/8] x3 |] %13
V:5
 x4 | x4 | x4 | x4 | x4 | x4 | x4 | x4 | x4 | x4 | x4 | z2 z A, |[M:3/8] x3 |] %13

